Numix-GalliumOS/16/mimetypes/text-x-emacs-lisp.svg

<?xml version="1.0" encoding="UTF-8" standalone="no"?>
<svg
   xmlns:dc="http://purl.org/dc/elements/1.1/"
   xmlns:cc="http://creativecommons.org/ns#"
   xmlns:rdf="http://www.w3.org/1999/02/22-rdf-syntax-ns#"
   xmlns:svg="http://www.w3.org/2000/svg"
   xmlns="http://www.w3.org/2000/svg"
   xmlns:sodipodi="http://sodipodi.sourceforge.net/DTD/sodipodi-0.dtd"
   xmlns:inkscape="http://www.inkscape.org/namespaces/inkscape"
   width="16"
   height="16"
   viewBox="0 0 16 16"
   id="svg2"
   version="1.1"
   inkscape:version="0.91 r13725"
   sodipodi:docname="text-x-emacs-lisp.svg">
  <metadata
     id="metadata34">
    <rdf:RDF>
      <cc:Work
         rdf:about="">
        <dc:format>image/svg+xml</dc:format>
        <dc:type
           rdf:resource="http://purl.org/dc/dcmitype/StillImage" />
        <dc:title />
      </cc:Work>
    </rdf:RDF>
  </metadata>
  <defs
     id="defs32" />
  <sodipodi:namedview
     pagecolor="#ffffff"
     bordercolor="#666666"
     borderopacity="1"
     objecttolerance="10"
     gridtolerance="10"
     guidetolerance="10"
     inkscape:pageopacity="0"
     inkscape:pageshadow="2"
     inkscape:window-width="1366"
     inkscape:window-height="717"
     id="namedview30"
     showgrid="false"
     inkscape:zoom="32"
     inkscape:cx="1.1010071"
     inkscape:cy="6.9007704"
     inkscape:window-x="0"
     inkscape:window-y="26"
     inkscape:window-maximized="1"
     inkscape:current-layer="svg2">
    <inkscape:grid
       type="xygrid"
       id="grid3018" />
  </sodipodi:namedview>
  <path
     style="fill:#5555b5;fill-opacity:1"
     d="M 2.667969,-4.46e-4 C 2.324219,-4.46e-4 2,0.337812 2,0.6964467 L 2,15.303108 C 2,15.641365 2.34375,16 2.667969,16 l 10.664062,0 C 13.65625,16 14,15.641365 14,15.303108 L 14,3.9995538 9.9999999,-4.46e-4 z"
     id="path4-2"
     inkscape:connector-curvature="0"
     sodipodi:nodetypes="ssssssccs" />
  <g
     style="fill:#ffffff"
     id="g10"
     transform="matrix(1.3331238,0,0,1.3395672,-2.665153,-3.0709949)" />
  <path
     style="fill:#000000;fill-opacity:0.19599998"
     d="m 10.613003,3.9995538 3.387,3.664062 0,-3.664062 z"
     id="path6"
     inkscape:connector-curvature="0"
     sodipodi:nodetypes="cccc" />
  <g
     style="fill:none;stroke:#ffffff"
     id="g20"
     transform="matrix(1.3331238,0,0,1.3395672,-2.665153,-3.0709949)">
    <g
       style="stroke-width:2"
       id="g22" />
  </g>
  <path
     style="fill:#ffffff;fill-opacity:0.39200003"
     d="m 9.9999999,-4.46e-4 3.9963961,3.9999998 -3.383784,0 c -0.299099,0 -0.6126121,-0.317117 -0.6126121,-0.616216 z"
     id="path8"
     inkscape:connector-curvature="0"
     sodipodi:nodetypes="ccssc" />
  <path
     d="M 6.1209368,11.792625 C 6.9585836,11.989963 7.8348764,11.979656 8.7020399,12 c 0,0 0.7585688,-0.02555 1.1746517,-0.09969 0.4358024,-0.07793 0.6811614,-0.165217 0.8136764,-0.328074 0.0027,-0.03782 0.06098,-0.163413 -0.112953,-0.275812 C 10.13095,11.010379 9.5660013,10.946558 8.4636713,10.726473 7.2446266,10.465626 6.8730583,10.188918 6.6859873,9.9844911 6.5068311,9.7808062 6.6952222,9.3372567 7.6618238,9.0884287 8.1503006,8.9518564 9.9863929,8.8657668 9.9863929,8.8657668 9.4446451,8.4676088 8.4295098,7.7557897 8.2224148,7.6048026 8.0398723,7.471813 7.7474551,7.2680096 7.710038,7.0782243 7.6618717,6.8939096 7.9525992,6.7940619 8.1072799,6.7776989 8.8937927,6.7402383 9.5427131,6.8004551 10.265662,6.898193 10.701327,6.9038564 11.031977,6.6642627 10.997535,6.1877329 10.976545,5.7028346 10.477456,5.3309583 9.9377105,5.3330084 9.4297401,5.3339507 8.1826619,5.4659472 8.1826619,5.4659472 9.6506895,5.7142691 9.8918026,5.7825339 9.9733636,5.9537044 9.5660173,6.3377026 8.8417014,6.1231609 8.1652429,6.0755061 7.3077822,5.9729853 6.7105061,5.8725814 6.4622128,6.2186059 6.3010152,6.4420854 6.5041531,6.7058287 6.5850924,6.859186 7.0774107,7.5924363 7.7837355,7.9747774 8.5026351,8.414671 7.1643881,8.1001532 6.1150409,8.3409186 5.4564133,8.7142775 c -0.754345,0.4821878 -0.5979959,1.2431344 0.651491,1.9169515 0.7356516,0.397239 1.2129042,0.568716 2.2880173,0.692041 0.6960423,0.08625 0.7997853,0.127215 0.7967169,0.18516 -0.00398,0.08068 -0.8134032,0.139011 -1.0362946,0.162596 -0.5655192,0.05848 -2.0288615,0.11956 -2.036996,0.119845"
     id="path53"
     inkscape:connector-curvature="0"
     style="fill:#ffffff;fill-opacity:1;fill-rule:evenodd;stroke:none"
     sodipodi:nodetypes="ccccccccccccccccccccccccccc" />
</svg>

<svg xmlns="http://www.w3.org/2000/svg" viewBox="0 0 16 16">
 <path d="m 2.668 0 c -0.344 0 -0.668 0.338 -0.668 0.697 l 0 14.607 c 0 0.338 0.344 0.697 0.668 0.697 l 10.664 0 c 0.324 0 0.668 -0.359 0.668 -0.697 l 0 -11.304 -4 -4 z" style="fill:#5555b5;fill-opacity:1"/>
 <path d="m 10.613 4 3.387 3.664 0 -3.664 z" style="fill:#000;fill-opacity:0.196"/>
 <path d="m 10 0 3.996 4 -3.384 0 c -0.299 0 -0.613 -0.317 -0.613 -0.616 z" style="fill:#fff;fill-opacity:0.392"/>
 <path d="m 6.121 11.793 c 0.838 0.197 1.714 0.187 2.581 0.207 c 0 0 0.759 -0.026 1.175 -0.1 0.436 -0.078 0.681 -0.165 0.814 -0.328 0.003 -0.038 0.061 -0.163 -0.113 -0.276 c -0.446 -0.286 -1.011 -0.35 -2.114 -0.57 -1.219 -0.261 -1.591 -0.538 -1.778 -0.742 -0.179 -0.204 0.009 -0.647 0.976 -0.896 0.488 -0.137 2.325 -0.223 2.325 -0.223 -0.542 -0.398 -1.557 -1.11 -1.764 -1.261 -0.183 -0.133 -0.475 -0.337 -0.512 -0.527 -0.048 -0.184 0.243 -0.284 0.397 -0.301 0.787 -0.037 1.435 0.023 2.158 0.12 0.436 0.006 0.766 -0.234 0.732 -0.71 -0.021 -0.485 -0.52 -0.857 -1.06 -0.855 -0.508 0.001 -1.755 0.133 -1.755 0.133 1.468 0.248 1.709 0.317 1.791 0.488 -0.407 0.384 -1.132 0.169 -1.808 0.122 -0.857 -0.103 -1.455 -0.203 -1.703 0.143 -0.161 0.223 0.042 0.487 0.123 0.641 0.492 0.733 1.199 1.116 1.918 1.555 -1.338 -0.315 -2.388 -0.074 -3.046 0.3 c -0.754 0.482 -0.598 1.243 0.651 1.917 0.736 0.397 1.213 0.569 2.288 0.692 0.696 0.086 0.8 0.127 0.797 0.185 -0.004 0.081 -0.813 0.139 -1.036 0.163 -0.566 0.058 -2.029 0.12 -2.037 0.12" style="fill:#fff;fill-opacity:1;stroke:none;fill-rule:evenodd"/>
</svg>
